!!!!SEGMENT: Lps2007-Postquam_consummati_sunt.krn
!!!id: Lps2007
!!!AGN: Motet
!!!SCT: Smijers (1934)
!!!voices: 4
!!!COM: Lupus Hellinck
!!!OTL: Postquam consummati sunt
**kern	**kern	**kern	**kern
*part4	*part3	*part2	*part1
*staff4	*staff3	*staff2	*staff1
*I"Bassus	*I"Tenor	*I"Altus	*I"Superius
*I'B	*I'T	*I'A	*I'S
*clefF4	*clefGv2	*clefGv2	*clefG2
*k[]	*k[]	*k[]	*k[]
*C:	*C:	*C:	*C:
*M2/1	*M2/1	*M2/1	*M2/1
*met(C|)	*met(C|)	*met(C|)	*met(C|)
!!section: Prima pars: Postquam consummati sunt
!!!OMD: Prima pars: Postquam consummati sunt
=1	=1	=1	=1
0r	0r	0d	0r
=2	=2	=2	=2
0r	0r	1d	0a
.	.	2c	.
.	.	2c	.
=3	=3	=3	=3
0r	0r	1f	1a
.	.	1e	2g
.	.	.	2g
=4	=4	=4	=4
0r	0r	1A	1cc
.	.	2r	1b
.	.	2G	.
=5	=5	=5	=5
0r	0r	2A	0e
.	.	1c	.
.	.	4B	.
.	.	4A	.
=6	=6	=6	=6
0r	0r	4B	2r
.	.	2c	.
.	.	.	2d
.	.	4B	.
.	.	2c	2e
.	.	2e	[2g
=7	=7	=7	=7
0D	0r	2.d	2g]
.	.	.	4f
.	.	8cL	4e
.	.	8BJ	.
.	.	2A	2f
.	.	4D	[2a
.	.	4E	.
=8	=8	=8	=8
1D	0A	4F	4a]
.	.	4G	4g
.	.	4A	2.f
.	.	4B	.
2C	.	2.c	.
.	.	.	4e
2C	.	.	[2e
.	.	4B	.
=9	=9	=9	=9
1F	1A	2c	2e]
.	.	2d	2d
1E	2G	2B	[1e
.	2G	[2e	.
=10	=10	=10	=10
1AA	1c	2e]	1e]
.	.	4d	.
.	.	4c	.
2r	1B	1d	1r
2GG	.	.	.
=11	=11	=11	=11
2AA	0E	0c	1.e
1C	.	.	.
4BB	.	.	4d
4AA	.	.	4c
=12	=12	=12	=12
1BB	2r	1r	1d
.	2D	.	.
[1C	2E	2r	1c
.	[2G	2e	.
=13	=13	=13	=13
1C]	2G]	1g	2r
.	4F	.	2g
.	4E	.	.
1r	1F	1f	2a
.	.	.	[2cc
=14	=14	=14	=14
1r	0G	2.e	2cc]
.	.	.	4b
.	.	8dL	4a
.	.	8cJ	.
2r	.	1d	4b
.	.	.	4a
2G	.	.	4g
.	.	.	4f
=15	=15	=15	=15
2A	0r	0c	2.e
1c	.	.	.
.	.	.	4f
.	.	.	2g
4B	.	.	[2a
4A	.	.	.
=16	=16	=16	=16
1B	0r	2r	2a]
.	.	2d	2g#i
[1A	.	2e	1a
.	.	[2f	.
=17	=17	=17	=17
1A]	0r	2f]	2r
.	.	4e	2a
.	.	4d	.
1r	.	2e	2g
.	.	[2f	[2a
=18	=18	=18	=18
1D	0r	4f]	2a]
.	.	4e	.
.	.	4d	4g
.	.	4c	4f
2E	.	2.B	2.g
[2G	.	.	.
.	.	4c	4a
=19	=19	=19	=19
2G]	2r	2d	2b
4F	2G	1e	1cc
4E	.	.	.
1F	2A	.	.
.	[2c	2A	4b
.	.	.	4a
=20	=20	=20	=20
0E	2c]	1e	2g
.	4B	.	1a
.	4A	.	.
.	1B	2r	.
.	.	2E	2g#i
=21	=21	=21	=21
1AA	0A	2E	0a
.	.	2E	.
2r	.	2F	.
2A	.	2D	.
=22	=22	=22	=22
2A	2r	2F	0r
2B	2d	2G	.
1G	2d	1E	.
.	2c	.	.
=23	=23	=23	=23
2A	2d	1D	1r
1F	2A	.	.
.	2c	1r	2r
2D	2d	.	2a
=24	=24	=24	=24
1E	1B	1r	2a
.	.	.	2g
1AA	4A	2r	2a
.	4B	.	.
.	4c	2A	2e
.	4d	.	.
=25	=25	=25	=25
0r	2e	2G	2g
.	2.f	2F	2a
.	.	2D	1f
.	4e	.	.
.	[2d	2D	.
=26	=26	=26	=26
2r	2d]	1A	1e
2A	2c	.	.
2A	1B	1E	2r
2G	.	.	[2e
=27	=27	=27	=27
2A	2A	2r	4e]
.	.	.	4f
2E	2e	2.g	4g
.	.	.	4a
2G	2d	.	2b
.	.	4f	.
2A	2A	[2e	[2cc
=28	=28	=28	=28
1F	2c	2e]	4cc]
.	.	.	4b
.	2d	2d	1a
1E	1B	2e	.
.	.	2e	2g#i
=29	=29	=29	=29
2r	1A	2c	1a
2D	.	2d	.
2D	2r	1e	2r
2C	2A	.	[2A
=30	=30	=30	=30
2D	2A	2d	4A]
.	.	.	4B
2AA	2A	2.c	4c
.	.	.	4d
2C	2G	.	2e
.	.	4B	.
2D	2D	[2A	[2f
=31	=31	=31	=31
1BB	2F	2A]	4f]
.	.	.	4e
.	2G	2G	1d
1AA	1E	[1A	.
.	.	.	2c#i
=32	=32	=32	=32
0r	[0D	1A]	1d
.	.	1r	1r
=33	=33	=33	=33
1r	0D]	1r	0a
2r	.	[1d	.
[2D	.	.	.
=34	=34	=34	=34
2D]	0r	1d]	1f
2D	.	.	.
1G	.	1B	1g
=35	=35	=35	=35
1F	2r	1c	0a
.	1A	.	.
1D	.	2.d	.
.	2A	.	.
.	.	4c	.
=36	=36	=36	=36
2r	1d	2B	0r
2D	.	2A	.
2E	1c	2G	.
[2F	.	[2A	.
=37	=37	=37	=37
4F]	1A	4A]	0r
4E	.	4G	.
4D	.	4F	.
4C	.	4E	.
2D	2r	2F	.
[2E	[2c	[2G	.
=38	=38	=38	=38
4E]	4c]	4G]	1r
4D	4B	4F	.
4C	4A	4E	.
4BB	4G	4D	.
2C	2A	2E	2r
[2D	[2B	[2F	[2f
=39	=39	=39	=39
4D]	4B]	4F]	2f]
4C	4A	4E	.
4BB	1A	1E	2c
4AA	.	.	.
1BB	.	.	1d
.	2G#i	2D	.
=40	=40	=40	=40
1AA	1A	2F	1c
.	.	2E	.
[1D	[1A	2.F	[1f
.	.	4G	.
=41	=41	=41	=41
1D]	1A]	2A	1f]
.	.	2F	.
[1AA	[1A	[1c	[1e
=42	=42	=42	=42
1AA]	0A_	1c]	1e]
1r	.	1r	2r
.	.	.	[2a
=43	=43	=43	=43
0r	1A]	2r	2a]
.	.	1e	2a
.	1r	.	2g
.	.	2e	2g
=44	=44	=44	=44
0r	1r	2d	2.a
.	.	2d	.
.	.	.	4b
.	2r	[1e	4cc
.	.	.	4b
.	[2A	.	[2cc
=45	=45	=45	=45
0r	2A]	0e]	2cc]
.	2A	.	4b
.	.	.	4a
.	2G	.	4b
.	.	.	4a
.	2G	.	4g
.	.	.	4f
=46	=46	=46	=46
0r	1A	2r	2.e
.	.	2A	.
.	.	.	4f
.	2r	2G	2g
.	[2c	2F	[2a
=47	=47	=47	=47
1r	2c]	1E	2a]
.	2B	.	2g
2r	4A	2r	2f
.	4G	.	.
[2A	4F	[2c	[2e
.	4E	.	.
=48	=48	=48	=48
2A]	1F	2c]	2e]
2A	.	2A	2d
2G	1E	2B	1e
2G	.	[2e	.
=49	=49	=49	=49
1A	0r	4e]	2r
.	.	4c	.
.	.	2.f	1a
2r	.	.	.
.	.	4e	.
[2c	.	[2e	2a
=50	=50	=50	=50
2c]	1r	2e]	2g
2B	.	2d	2g
2A	2r	1e	2a
2G	[2e	.	2b
=51	=51	=51	=51
1F	4e]	2r	2cc
.	4d	.	.
.	4d	2A	2a
.	4c	.	.
1E	2e	2B	2.g
.	2E	2c	.
.	.	.	8aL
.	.	.	8bJ
=52	=52	=52	=52
0r	2A	2A	2cc
.	2G	2B	2.b
.	1A	2c	.
.	.	.	4a
.	.	2A	[2a
=53	=53	=53	=53
1r	1E	1B	2a]
.	.	.	2g
2r	2F	[1A	2.a
[2D	4D	.	.
.	4E	.	4g
=54	=54	=54	=54
2D]	4F	1A]	4f
.	4G	.	4e
2D	4A	.	2.f
.	4B	.	.
2C	4c	2r	.
.	4d	.	4e
2C	2e	[2A	[2e
=55	=55	=55	=55
2F	2c	2A]	2e]
2F	2d	2A	2d
1E	1B	2G	[1e
.	.	2G	.
=56	=56	=56	=56
2r	1A	2c	1e]
1A	.	2c	.
.	2r	1B	1r
2G	[2d	.	.
=57	=57	=57	=57
2F	2d]	1r	1r
2D	2d	.	.
1A	2c	1e	2r
.	2c	.	[2a
=58	=58	=58	=58
1D	2f	2d	2a]
.	2f	2A	2a
1r	1e	2.c	2g
.	.	.	2g
.	.	4B	.
=59	=59	=59	=59
0r	2r	1A	2cc
.	2c	.	2cc
.	2d	1G	1b
.	2e	.	.
=60	=60	=60	=60
2r	2A	0c	0r
1A	2.e	.	.
.	4d	.	.
2A	[2c	.	.
=61	=61	=61	=61
2G	4c]	1d	2r
.	4B	.	.
2G	2.B	.	2g
2c	.	1e	1a
.	4A	.	.
2c	[2A	.	.
=62	=62	=62	=62
1B	2A]	1E	1b
.	2G	.	.
1r	2A	1r	2.cc
.	[2f	.	.
.	.	.	4b
=63	=63	=63	=63
2r	2f]	1r	2a
1c	2e	.	2g
.	1d	2r	2a
2B	.	2d	2b
=64	=64	=64	=64
2A	2c	2e	2cc
2G	2.e	1g	2.b
1A	.	.	.
.	4d	.	4a
.	2c	[2e	[2a
=65	=65	=65	=65
1E	1B	4e]	2a]
.	.	4d	.
.	.	2B	2g#i
2r	[1Al	1c	[1al
[2F	.	.	.
=66	=66	=66	=66
2F]	0A_	2d	0a_
2E	.	2e	.
2D	.	2f	.
2C	.	2e	.
=67	=67	=67	=67
1D	0A_	1f	0a_
[1AAl	.	[1el	.
=68	=68	=68	=68
00AA]	00A]	00e]	00a]
==	==	==	==
*-	*-	*-	*-
!!!system-decoration: [*]
!!!RDF**kern: i = editorial accidental
!!!RDF**kern: l = terminal long
!!!ENC: Benjamin Ory
!!!END: 2021/4/14
!!!EED: Benjamin Ory
!!!EEV: 2021/04/28
!!!YEC: Copyright 2021 Benjamin Ory, All Rights Reserved
!!!ONB: Translated from MusicXML on 2021/04/28
